X: 43
T: Shenhurhur huozai ren litou
L: 1/8
M: 2/4
K: G
B Be2 [I:setbarnb 1]| 
E DB,2 | 
A2B d | 
B4 | 
B Be2 | 
E DB,2 | 
A2B/ d/ G | 
E4 |]

@@@ Tune index: 8917
